static/img/kroki/a0a9eff6818b060800fa7a24ab73ece1.svg

<?xml version="1.0" encoding="us-ascii" standalone="no"?><svg xmlns="http://www.w3.org/2000/svg" xmlns:xlink="http://www.w3.org/1999/xlink" contentStyleType="text/css" height="767px" preserveAspectRatio="none" style="width:640px;height:767px;" version="1.1" viewBox="0 0 640 767" width="640px" zoomAndPan="magnify"><defs/><g><!--class aws_api_gateway_deployment--><g id="elem_aws_api_gateway_deployment"><rect codeLine="22" fill="#3D176E" height="126.6797" id="aws_api_gateway_deployment" rx="2.5" ry="2.5" style="stroke:#000D19;stroke-width:0.5;" width="626" x="7" y="633.84"/><ellipse cx="182.25" cy="653.7345" fill="#ADD1B2" rx="11" ry="11" style="stroke:#181818;stroke-width:1.0;"/><path d="M185.2188,659.3752 Q184.6406,659.672 184,659.8127 Q183.3594,659.9689 182.6563,659.9689 Q180.1563,659.9689 178.8281,658.3283 Q177.5156,656.672 177.5156,653.547 Q177.5156,650.422 178.8281,648.7658 Q180.1563,647.1095 182.6563,647.1095 Q183.3594,647.1095 184,647.2658 Q184.6563,647.422 185.2188,647.7189 L185.2188,650.4377 Q184.5938,649.8595 184,649.5939 Q183.4063,649.3127 182.7813,649.3127 Q181.4375,649.3127 180.75,650.3908 Q180.0625,651.4533 180.0625,653.547 Q180.0625,655.6408 180.75,656.7189 Q181.4375,657.7814 182.7813,657.7814 Q183.4063,657.7814 184,657.5158 Q184.5938,657.2345 185.2188,656.6564 L185.2188,659.3752 Z " fill="#000000"/><text fill="#D9B8FF" font-family="Helvetica" font-size="17" lengthAdjust="spacing" textLength="257" x="207.75" y="659.6198">aws_api_gateway_deployment</text><line style="stroke:#000D19;stroke-width:0.5;" x1="8" x2="632" y1="673.6291" y2="673.6291"/><text fill="#D9B8FF" font-family="sans-serif" font-size="14" font-weight="bold" lengthAdjust="spacing" textLength="57" x="18" y="695.6242">api_link</text><text fill="#D9B8FF" font-family="sans-serif" font-size="14" lengthAdjust="spacing" textLength="48" x="75" y="695.6242">: string</text><text fill="#D9B8FF" font-family="sans-serif" font-size="14" font-weight="bold" lengthAdjust="spacing" textLength="202" x="18" y="721.9211">deployment_api_summary</text><text fill="#D9B8FF" font-family="sans-serif" font-size="14" lengthAdjust="spacing" textLength="402" x="220" y="721.9211">: dictionary[string, dictionary[string, dictionary[string, any]]]</text><text fill="#D9B8FF" font-family="sans-serif" font-size="14" font-weight="bold" lengthAdjust="spacing" textLength="89" x="18" y="748.2179">description</text><text fill="#D9B8FF" font-family="sans-serif" font-size="14" lengthAdjust="spacing" textLength="48" x="107" y="748.2179">: string</text></g><!--class aws_resource--><g id="elem_aws_resource"><rect codeLine="27" fill="#3D176E" height="74.0859" id="aws_resource" rx="2.5" ry="2.5" style="stroke:#000D19;stroke-width:0.5;" width="155" x="242.5" y="438.75"/><ellipse cx="257.5" cy="458.6445" fill="#ADD1B2" rx="11" ry="11" style="stroke:#181818;stroke-width:1.0;"/><path d="M260.4688,464.2852 Q259.8906,464.582 259.25,464.7227 Q258.6094,464.8789 257.9063,464.8789 Q255.4063,464.8789 254.0781,463.2383 Q252.7656,461.582 252.7656,458.457 Q252.7656,455.332 254.0781,453.6758 Q255.4063,452.0195 257.9063,452.0195 Q258.6094,452.0195 259.25,452.1758 Q259.9063,452.332 260.4688,452.6289 L260.4688,455.3477 Q259.8438,454.7695 259.25,454.5039 Q258.6563,454.2227 258.0313,454.2227 Q256.6875,454.2227 256,455.3008 Q255.3125,456.3633 255.3125,458.457 Q255.3125,460.5508 256,461.6289 Q256.6875,462.6914 258.0313,462.6914 Q258.6563,462.6914 259.25,462.4258 Q259.8438,462.1445 260.4688,461.5664 L260.4688,464.2852 Z " fill="#000000"/><text fill="#D9B8FF" font-family="Helvetica" font-size="17" lengthAdjust="spacing" textLength="113" x="276.5" y="464.5298">aws_resource</text><line style="stroke:#000D19;stroke-width:0.5;" x1="243.5" x2="396.5" y1="478.5391" y2="478.5391"/><text fill="#D9B8FF" font-family="sans-serif" font-size="14" font-weight="bold" lengthAdjust="spacing" textLength="26" x="253.5" y="500.5342">arn</text><text fill="#D9B8FF" font-family="sans-serif" font-size="14" lengthAdjust="spacing" textLength="48" x="279.5" y="500.5342">: string</text></g><!--class resource--><g id="elem_resource"><rect codeLine="30" fill="#3D176E" height="310.7578" id="resource" rx="2.5" ry="2.5" style="stroke:#000D19;stroke-width:0.5;" width="227" x="206.5" y="7"/><ellipse cx="275.25" cy="26.8945" fill="#ADD1B2" rx="11" ry="11" style="stroke:#181818;stroke-width:1.0;"/><path d="M278.2188,32.5352 Q277.6406,32.832 277,32.9727 Q276.3594,33.1289 275.6563,33.1289 Q273.1563,33.1289 271.8281,31.4883 Q270.5156,29.832 270.5156,26.707 Q270.5156,23.582 271.8281,21.9258 Q273.1563,20.2695 275.6563,20.2695 Q276.3594,20.2695 277,20.4258 Q277.6563,20.582 278.2188,20.8789 L278.2188,23.5977 Q277.5938,23.0195 277,22.7539 Q276.4063,22.4727 275.7813,22.4727 Q274.4375,22.4727 273.75,23.5508 Q273.0625,24.6133 273.0625,26.707 Q273.0625,28.8008 273.75,29.8789 Q274.4375,30.9414 275.7813,30.9414 Q276.4063,30.9414 277,30.6758 Q277.5938,30.3945 278.2188,29.8164 L278.2188,32.5352 Z " fill="#000000"/><text fill="#D9B8FF" font-family="Helvetica" font-size="17" lengthAdjust="spacing" textLength="71" x="300.75" y="32.7798">resource</text><line style="stroke:#000D19;stroke-width:0.5;" x1="207.5" x2="432.5" y1="46.7891" y2="46.7891"/><text fill="#D9B8FF" font-family="sans-serif" font-size="14" font-weight="bold" lengthAdjust="spacing" textLength="29" x="217.5" y="68.7842">age</text><text fill="#D9B8FF" font-family="sans-serif" font-size="14" lengthAdjust="spacing" textLength="66" x="246.5" y="68.7842">: duration</text><text fill="#D9B8FF" font-family="sans-serif" font-size="14" font-weight="bold" lengthAdjust="spacing" textLength="43" x="217.5" y="95.0811">atime</text><text fill="#D9B8FF" font-family="sans-serif" font-size="14" lengthAdjust="spacing" textLength="70" x="260.5" y="95.0811">: datetime</text><text fill="#D9B8FF" font-family="sans-serif" font-size="14" font-weight="bold" lengthAdjust="spacing" textLength="43" x="217.5" y="121.3779">ctime</text><text fill="#D9B8FF" font-family="sans-serif" font-size="14" lengthAdjust="spacing" textLength="70" x="260.5" y="121.3779">: datetime</text><text fill="#D9B8FF" font-family="sans-serif" font-size="14" font-weight="bold" lengthAdjust="spacing" textLength="14" x="217.5" y="147.6748">id</text><text fill="#D9B8FF" font-family="sans-serif" font-size="14" lengthAdjust="spacing" textLength="48" x="231.5" y="147.6748">: string</text><text fill="#D9B8FF" font-family="sans-serif" font-size="14" font-weight="bold" lengthAdjust="spacing" textLength="33" x="217.5" y="173.9717">kind</text><text fill="#D9B8FF" font-family="sans-serif" font-size="14" lengthAdjust="spacing" textLength="48" x="250.5" y="173.9717">: string</text><text fill="#D9B8FF" font-family="sans-serif" font-size="14" font-weight="bold" lengthAdjust="spacing" textLength="90" x="217.5" y="200.2686">last_access</text><text fill="#D9B8FF" font-family="sans-serif" font-size="14" lengthAdjust="spacing" textLength="66" x="307.5" y="200.2686">: duration</text><text fill="#D9B8FF" font-family="sans-serif" font-size="14" font-weight="bold" lengthAdjust="spacing" textLength="90" x="217.5" y="226.5654">last_update</text><text fill="#D9B8FF" font-family="sans-serif" font-size="14" lengthAdjust="spacing" textLength="66" x="307.5" y="226.5654">: duration</text><text fill="#D9B8FF" font-family="sans-serif" font-size="14" font-weight="bold" lengthAdjust="spacing" textLength="48" x="217.5" y="252.8623">mtime</text><text fill="#D9B8FF" font-family="sans-serif" font-size="14" lengthAdjust="spacing" textLength="70" x="265.5" y="252.8623">: datetime</text><text fill="#D9B8FF" font-family="sans-serif" font-size="14" font-weight="bold" lengthAdjust="spacing" textLength="43" x="217.5" y="279.1592">name</text><text fill="#D9B8FF" font-family="sans-serif" font-size="14" lengthAdjust="spacing" textLength="48" x="260.5" y="279.1592">: string</text><text fill="#D9B8FF" font-family="sans-serif" font-size="14" font-weight="bold" lengthAdjust="spacing" textLength="34" x="217.5" y="305.4561">tags</text><text fill="#D9B8FF" font-family="sans-serif" font-size="14" lengthAdjust="spacing" textLength="171" x="251.5" y="305.4561">: dictionary[string, string]</text></g><!--reverse link aws_resource to aws_api_gateway_deployment--><g id="link_aws_resource_aws_api_gateway_deployment"><path codeLine="42" d="M320,533.86 C320,564.49 320,602.28 320,633.69 " fill="none" id="aws_resource-backto-aws_api_gateway_deployment" style="stroke:#FFAF37;stroke-width:2.0;"/><polygon fill="none" points="313,534.02,320,514.02,327,534.02,313,534.02" style="stroke:#FFAF37;stroke-width:2.0;"/></g><!--reverse link resource to aws_resource--><g id="link_resource_aws_resource"><path codeLine="43" d="M320,338.97 C320,376.78 320,413 320,438.51 " fill="none" id="resource-backto-aws_resource" style="stroke:#FFAF37;stroke-width:2.0;"/><polygon fill="none" points="313,339.17,320,319.17,327,339.17,313,339.17" style="stroke:#FFAF37;stroke-width:2.0;"/></g><!--SRC=[ZPFBJiCm44Nt_GfBx2egjI0eHMoW4e8DGi0ELTNKdgHMOpiQErJXyU_O2G_dqS8gphqdCtScoLeAPAXoLpA5QeLa1tOZTGu4YbqIcUtSP8ROGP90SZnjczT6kp-1Er38RZ1xGISvj8cdjUGRZTQoeyYw0hv9oHHQrEKTWRRUGkqYQfw1jPVEaLmL3gCmOhOwIv8ssIvwS2mcqrFiO8O4qXSo7e_5PDP6_corT-uVub6-8fl4Ixip3ZinEoqgQc_AG4GXEuD- -pipteCGKgVi9D8UwaoaaHhwung4sGOwWSp6RQn3GkFA7EUTgN1s9f9fBtox2-PXSmosTWcvNARWS0lbKc2UcLBvRuEz3OR3O6LIRuR3Sr-JV2ul_ZBLexPG2gWCY93SIQFztNDD7_vJ0bqk5ekgjkKay-17FJ-Yj8JM5CInpaTzM1D9iOfM48IgGN5IrPeVEfozndiqAHfZ- -Ks1T_BRu1p_yErEbHEaOTQBKVrzD5GIp-57QHsnphhwyAFsjZ5nVjeDDhpCWSzvBVq2G00]--></g></svg>

<svg xmlns="http://www.w3.org/2000/svg" width="640" height="767" preserveAspectRatio="none" style="width:640px;height:767px"><rect width="626" height="126.68" x="7" y="633.84" fill="#3D176E" rx="2.5" ry="2.5" style="stroke:#000d19;stroke-width:.5"/><circle cx="182.25" cy="653.735" r="11" fill="#ADD1B2" style="stroke:#181818;stroke-width:1"/><path d="M185.219 659.375q-.578.297-1.219.438-.64.156-1.344.156-2.5 0-3.828-1.64-1.312-1.657-1.312-4.782t1.312-4.781q1.328-1.656 3.828-1.656.703 0 1.344.156.656.156 1.219.453v2.719q-.625-.578-1.219-.844-.594-.281-1.219-.281-1.344 0-2.031 1.078-.688 1.062-.688 3.156 0 2.094.688 3.172.688 1.062 2.031 1.062.625 0 1.219-.265.594-.281 1.219-.86v2.72Z"/><text x="207.75" y="659.62" fill="#D9B8FF" font-family="Helvetica" font-size="17" textLength="257">aws_api_gateway_deployment</text><path d="M8 673.629h624" style="stroke:#000d19;stroke-width:.5"/><text x="18" y="695.624" fill="#D9B8FF" font-family="sans-serif" font-size="14" font-weight="bold" textLength="57">api_link</text><text x="75" y="695.624" fill="#D9B8FF" font-family="sans-serif" font-size="14" textLength="48">: string</text><text x="18" y="721.921" fill="#D9B8FF" font-family="sans-serif" font-size="14" font-weight="bold" textLength="202">deployment_api_summary</text><text x="220" y="721.921" fill="#D9B8FF" font-family="sans-serif" font-size="14" textLength="402">: dictionary[string, dictionary[string, dictionary[string, any]]]</text><text x="18" y="748.218" fill="#D9B8FF" font-family="sans-serif" font-size="14" font-weight="bold" textLength="89">description</text><text x="107" y="748.218" fill="#D9B8FF" font-family="sans-serif" font-size="14" textLength="48">: string</text><rect width="155" height="74.086" x="242.5" y="438.75" fill="#3D176E" rx="2.5" ry="2.5" style="stroke:#000d19;stroke-width:.5"/><circle cx="257.5" cy="458.644" r="11" fill="#ADD1B2" style="stroke:#181818;stroke-width:1"/><path d="M260.469 464.285q-.578.297-1.219.438-.64.156-1.344.156-2.5 0-3.828-1.64-1.312-1.657-1.312-4.782t1.312-4.781q1.328-1.656 3.828-1.656.703 0 1.344.156.656.156 1.219.453v2.719q-.625-.579-1.219-.844-.594-.281-1.219-.281-1.344 0-2.031 1.078-.688 1.062-.688 3.156 0 2.094.688 3.172.688 1.062 2.031 1.062.625 0 1.219-.265.594-.281 1.219-.86v2.72Z"/><text x="276.5" y="464.53" fill="#D9B8FF" font-family="Helvetica" font-size="17" textLength="113">aws_resource</text><path d="M243.5 478.539h153" style="stroke:#000d19;stroke-width:.5"/><text x="253.5" y="500.534" fill="#D9B8FF" font-family="sans-serif" font-size="14" font-weight="bold" textLength="26">arn</text><text x="279.5" y="500.534" fill="#D9B8FF" font-family="sans-serif" font-size="14" textLength="48">: string</text><rect width="227" height="310.758" x="206.5" y="7" fill="#3D176E" rx="2.5" ry="2.5" style="stroke:#000d19;stroke-width:.5"/><circle cx="275.25" cy="26.895" r="11" fill="#ADD1B2" style="stroke:#181818;stroke-width:1"/><path d="M278.219 32.535q-.578.297-1.219.438-.64.156-1.344.156-2.5 0-3.828-1.64-1.312-1.657-1.312-4.782t1.312-4.781q1.328-1.656 3.828-1.656.703 0 1.344.156.656.156 1.219.453v2.719q-.625-.578-1.219-.844-.594-.281-1.219-.281-1.344 0-2.031 1.078-.688 1.062-.688 3.156 0 2.094.688 3.172.688 1.062 2.031 1.062.625 0 1.219-.265.594-.281 1.219-.86v2.72Z"/><text x="300.75" y="32.78" fill="#D9B8FF" font-family="Helvetica" font-size="17" textLength="71">resource</text><path d="M207.5 46.789h225" style="stroke:#000d19;stroke-width:.5"/><text x="217.5" y="68.784" fill="#D9B8FF" font-family="sans-serif" font-size="14" font-weight="bold" textLength="29">age</text><text x="246.5" y="68.784" fill="#D9B8FF" font-family="sans-serif" font-size="14" textLength="66">: duration</text><text x="217.5" y="95.081" fill="#D9B8FF" font-family="sans-serif" font-size="14" font-weight="bold" textLength="43">atime</text><text x="260.5" y="95.081" fill="#D9B8FF" font-family="sans-serif" font-size="14" textLength="70">: datetime</text><text x="217.5" y="121.378" fill="#D9B8FF" font-family="sans-serif" font-size="14" font-weight="bold" textLength="43">ctime</text><text x="260.5" y="121.378" fill="#D9B8FF" font-family="sans-serif" font-size="14" textLength="70">: datetime</text><text x="217.5" y="147.675" fill="#D9B8FF" font-family="sans-serif" font-size="14" font-weight="bold" textLength="14">id</text><text x="231.5" y="147.675" fill="#D9B8FF" font-family="sans-serif" font-size="14" textLength="48">: string</text><text x="217.5" y="173.972" fill="#D9B8FF" font-family="sans-serif" font-size="14" font-weight="bold" textLength="33">kind</text><text x="250.5" y="173.972" fill="#D9B8FF" font-family="sans-serif" font-size="14" textLength="48">: string</text><text x="217.5" y="200.269" fill="#D9B8FF" font-family="sans-serif" font-size="14" font-weight="bold" textLength="90">last_access</text><text x="307.5" y="200.269" fill="#D9B8FF" font-family="sans-serif" font-size="14" textLength="66">: duration</text><text x="217.5" y="226.565" fill="#D9B8FF" font-family="sans-serif" font-size="14" font-weight="bold" textLength="90">last_update</text><text x="307.5" y="226.565" fill="#D9B8FF" font-family="sans-serif" font-size="14" textLength="66">: duration</text><text x="217.5" y="252.862" fill="#D9B8FF" font-family="sans-serif" font-size="14" font-weight="bold" textLength="48">mtime</text><text x="265.5" y="252.862" fill="#D9B8FF" font-family="sans-serif" font-size="14" textLength="70">: datetime</text><text x="217.5" y="279.159" fill="#D9B8FF" font-family="sans-serif" font-size="14" font-weight="bold" textLength="43">name</text><text x="260.5" y="279.159" fill="#D9B8FF" font-family="sans-serif" font-size="14" textLength="48">: string</text><text x="217.5" y="305.456" fill="#D9B8FF" font-family="sans-serif" font-size="14" font-weight="bold" textLength="34">tags</text><text x="251.5" y="305.456" fill="#D9B8FF" font-family="sans-serif" font-size="14" textLength="171">: dictionary[string, string]</text><path fill="none" d="M320 533.86v99.83m-7-99.67 7-20 7 20h-14zm7-195.05v99.54m-7-99.34 7-20 7 20h-14z" style="stroke:#ffaf37;stroke-width:2"/></svg>
